assets/images/font-names/noto-sans.svg

<svg width="69.829" height="11.009"><path d="M8.489.154v10.708H6.914L1.179 1.97h-.058l.036.594a47.361 47.361 0 01.054.95q.021.469.029.885a24.791 24.791 0 01.005.479v5.984H0V.154h1.56l.33.52 3.515 5.435 1.868 2.907h.059a4.283 4.283 0 01-.007-.097q-.013-.231-.04-.863a258.15 258.15 0 01-.012-.296 95.86 95.86 0 01-.019-.503q-.024-.663-.025-1.024a11.409 11.409 0 010-.037V.154h1.26zm29.67 10.349V9.214q.681.293 1.491.461a8.305 8.305 0 00.865.135 6.51 6.51 0 00.647.034 5.003 5.003 0 00.661-.041q.332-.044.602-.137a1.939 1.939 0 00.546-.284q.608-.461.608-1.267a2.138 2.138 0 00-.031-.374q-.038-.212-.122-.385a1.197 1.197 0 00-.067-.12q-.219-.344-.736-.644-.516-.3-1.563-.681a8.525 8.525 0 01-.828-.349q-.839-.411-1.282-.912a2.481 2.481 0 01-.014-.017 2.56 2.56 0 01-.575-1.215 3.614 3.614 0 01-.063-.686 2.68 2.68 0 01.166-.961A2.375 2.375 0 0139.24.74a3.305 3.305 0 011.247-.598Q41.046 0 41.719 0a7.477 7.477 0 012.062.278 6.704 6.704 0 01.889.323l-.417 1.157a8.239 8.239 0 00-1.168-.391q-.66-.163-1.27-.179a4.993 4.993 0 00-.126-.001 3.573 3.573 0 00-.58.044q-.308.051-.558.16a1.716 1.716 0 00-.352.206q-.538.41-.538 1.15a2.209 2.209 0 00.029.37q.037.215.119.391a1.252 1.252 0 00.06.114 1.542 1.542 0 00.252.312q.175.17.422.321.387.238 1.141.531a18.412 18.412 0 00.32.121q1.194.44 1.78.854a3.125 3.125 0 01.482.415 2.396 2.396 0 01.382.537 2.413 2.413 0 01.225.671 3.361 3.361 0 01.054.614 3.112 3.112 0 01-.154 1.003 2.567 2.567 0 01-.857 1.202 3.405 3.405 0 01-1.162.59q-.72.215-1.65.215a11.567 11.567 0 01-1.093-.048q-1.095-.104-1.803-.434a3.27 3.27 0 01-.049-.023zm23.943.359h-1.304V5.72a3.515 3.515 0 00-.038-.538q-.043-.275-.133-.494a1.442 1.442 0 00-.264-.429 1.339 1.339 0 00-.56-.36q-.341-.12-.806-.12a3.525 3.525 0 00-.668.059q-.373.072-.659.233a1.639 1.639 0 00-.472.393 2.034 2.034 0 00-.329.602q-.2.552-.227 1.369a7.931 7.931 0 00-.004.259v4.168H55.32V2.82h1.062l.198 1.099h.073q.373-.594 1.047-.92.674-.326 1.487-.326.951 0 1.588.297a2.119 2.119 0 01.609.421 2.19 2.19 0 01.503.815q.126.346.178.773a5.352 5.352 0 01.037.646v5.237zm1.992-.359V9.302a6.837 6.837 0 001.222.463 5.154 5.154 0 001.334.181q.881 0 1.338-.251a1.171 1.171 0 00.113-.071 1.121 1.121 0 00.294-.298q.16-.244.16-.566a.933.933 0 00-.294-.683 1.39 1.39 0 00-.142-.123 2.707 2.707 0 00-.279-.182q-.453-.26-1.27-.572-.874-.338-1.348-.6a3.312 3.312 0 01-.249-.151 2.582 2.582 0 01-.346-.276q-.187-.18-.307-.382a1.584 1.584 0 01-.024-.041 1.646 1.646 0 01-.172-.475q-.041-.204-.044-.437a2.83 2.83 0 010-.033 1.94 1.94 0 01.154-.785q.198-.454.651-.775.641-.454 1.661-.548a6.07 6.07 0 01.551-.024q1.37 0 2.564.542l-.447 1.048a7.693 7.693 0 00-.919-.322q-.473-.131-.903-.172a4.044 4.044 0 00-.383-.019 4.156 4.156 0 00-.452.023q-.466.051-.758.217a1.187 1.187 0 00-.035.02 1.006 1.006 0 00-.237.197.763.763 0 00-.188.517.875.875 0 00.291.664 1.182 1.182 0 00.076.065q.318.251 1.37.671a25.694 25.694 0 00.336.131q.87.324 1.346.609a3.133 3.133 0 01.137.087q.463.311.691.696a1.657 1.657 0 01.016.029 1.718 1.718 0 01.19.535 2.371 2.371 0 01.037.432 2.412 2.412 0 01-.118.774 1.968 1.968 0 01-.724.973q-.657.482-1.729.589a6.469 6.469 0 01-.637.029q-1.589 0-2.527-.505zm-11.264.359h-.96l-.256-1.143h-.059a5.04 5.04 0 01-.408.457q-.219.215-.438.366a2.24 2.24 0 01-.351.199 2.79 2.79 0 01-.577.182q-.281.058-.609.077a5.619 5.619 0 01-.319.008q-1.187 0-1.861-.622a2.028 2.028 0 01-.599-1.061 3.086 3.086 0 01-.075-.697 2.122 2.122 0 011.205-2.006q.892-.474 2.444-.549a11.707 11.707 0 01.211-.008l1.363-.052v-.476a3.369 3.369 0 00-.034-.489q-.036-.25-.114-.451a1.311 1.311 0 00-.248-.411 1.198 1.198 0 00-.485-.316q-.326-.12-.782-.12a3.807 3.807 0 00-1.053.143 3.547 3.547 0 00-.152.048 10.204 10.204 0 00-.812.31 9.002 9.002 0 00-.254.114l-.402-.988a5.878 5.878 0 011.137-.455 6.647 6.647 0 01.188-.051 5.731 5.731 0 011.421-.183q.913 0 1.533.253a2.135 2.135 0 01.635.392 1.961 1.961 0 01.522.803q.189.522.189 1.247v5.479zM24.097 9.763v1.011a1.364 1.364 0 01-.119.045q-.173.057-.449.113-.384.076-.78.076a3.217 3.217 0 01-.948-.127q-1.041-.321-1.314-1.452a3.865 3.865 0 01-.096-.903V3.845h-1.136v-.63l1.15-.527.528-1.714h.783V2.82h2.322v1.025h-2.322v4.644a2.331 2.331 0 00.035.413q.04.226.13.406a1.136 1.136 0 00.169.25 1.091 1.091 0 00.637.349 1.603 1.603 0 00.289.025 3.166 3.166 0 00.232-.009q.122-.009.259-.027a6.001 6.001 0 00.11-.016 5.011 5.011 0 00.18-.029q.213-.04.34-.088zm-6.009-1.71a6.281 6.281 0 00.113-1.227q0-1.919-1-3.036a3.21 3.21 0 00-1.501-.953 4.173 4.173 0 00-1.198-.164q-1.773 0-2.754 1.095-.981 1.095-.981 3.058 0 1.26.454 2.212a4.01 4.01 0 00.073.146 3.3 3.3 0 001.223 1.315 3.415 3.415 0 00.815.357 3.982 3.982 0 001.119.152q1.757 0 2.754-1.106a3.402 3.402 0 00.403-.55q.335-.568.48-1.299zm14.488 0a6.281 6.281 0 00.112-1.227q0-1.919-1-3.036a3.21 3.21 0 00-1.5-.953 4.173 4.173 0 00-1.199-.164q-1.772 0-2.754 1.095-.981 1.095-.981 3.058 0 1.26.454 2.212a4.01 4.01 0 00.073.146 3.3 3.3 0 001.223 1.315 3.415 3.415 0 00.815.357 3.982 3.982 0 001.119.152q1.758 0 2.754-1.106a3.402 3.402 0 00.403-.55q.335-.568.481-1.299zM12.129 6.826a6.168 6.168 0 00.055.857q.127.899.542 1.447a1.933 1.933 0 001.263.747 2.937 2.937 0 00.498.04 2.671 2.671 0 00.726-.093 1.905 1.905 0 001.025-.694 2.562 2.562 0 00.389-.76q.117-.357.169-.793a6.315 6.315 0 00.042-.751q0-1.516-.604-2.281-.604-.766-1.769-.766a2.512 2.512 0 00-1.063.209q-1.273.589-1.273 2.838zm14.487 0a6.168 6.168 0 00.056.857q.126.899.541 1.447a1.933 1.933 0 001.263.747 2.937 2.937 0 00.499.04 2.671 2.671 0 00.725-.093 1.905 1.905 0 001.025-.694 2.562 2.562 0 00.389-.76q.117-.357.17-.793a6.315 6.315 0 00.042-.751q0-1.516-.605-2.281-.604-.766-1.768-.766a2.512 2.512 0 00-1.063.209q-1.274.589-1.274 2.838zm24.91.828v-.725l-1.187.051a8.375 8.375 0 00-.71.054q-.688.085-1.119.285a1.854 1.854 0 00-.188.101 1.266 1.266 0 00-.611.919 1.898 1.898 0 00-.023.304 1.651 1.651 0 00.043.39 1.086 1.086 0 00.342.577q.332.291.896.33a2.624 2.624 0 00.184.006q1.106 0 1.739-.597a1.94 1.94 0 00.55-.963q.084-.333.084-.732z" vector-effect="non-scaling-stroke" stroke-linecap="round" fill-rule="evenodd" font-size="12" stroke="#000" stroke-width=".25mm" fill="none"/></svg>

<svg width="69.829" height="11.009" viewBox="0 0 69.829 11.009"><title>Noto Sans</title><g id="svgGroup" stroke-linecap="round" fill-rule="evenodd" font-size="9pt" stroke="#000" stroke-width="0.25mm" fill="none" style="stroke:#000;stroke-width:0.25mm;fill:none"><path d="M 8.489 0.154 L 8.489 10.862 L 6.914 10.862 L 1.179 1.97 L 1.121 1.97 L 1.157 2.564 A 47.361 47.361 0 0 1 1.211 3.514 Q 1.232 3.983 1.24 4.399 A 24.791 24.791 0 0 1 1.245 4.878 L 1.245 10.862 L 0 10.862 L 0 0.154 L 1.56 0.154 L 1.89 0.674 L 5.405 6.109 L 7.273 9.016 L 7.332 9.016 A 4.283 4.283 0 0 1 7.325 8.919 Q 7.312 8.688 7.285 8.056 A 258.15 258.15 0 0 1 7.273 7.76 A 95.86 95.86 0 0 1 7.254 7.257 Q 7.23 6.594 7.229 6.233 A 11.409 11.409 0 0 1 7.229 6.196 L 7.229 0.154 L 8.489 0.154 Z M 38.159 10.503 L 38.159 9.214 Q 38.84 9.507 39.65 9.675 A 8.305 8.305 0 0 0 40.515 9.81 A 6.51 6.51 0 0 0 41.162 9.844 A 5.003 5.003 0 0 0 41.823 9.803 Q 42.155 9.759 42.425 9.666 A 1.939 1.939 0 0 0 42.971 9.382 Q 43.579 8.921 43.579 8.115 A 2.138 2.138 0 0 0 43.548 7.741 Q 43.51 7.529 43.426 7.356 A 1.197 1.197 0 0 0 43.359 7.236 Q 43.14 6.892 42.623 6.592 Q 42.107 6.292 41.06 5.911 A 8.525 8.525 0 0 1 40.232 5.562 Q 39.393 5.151 38.95 4.65 A 2.481 2.481 0 0 1 38.936 4.633 A 2.56 2.56 0 0 1 38.361 3.418 A 3.614 3.614 0 0 1 38.298 2.732 A 2.68 2.68 0 0 1 38.464 1.771 A 2.375 2.375 0 0 1 39.24 0.74 A 3.305 3.305 0 0 1 40.487 0.142 Q 41.046 0 41.719 0 A 7.477 7.477 0 0 1 43.781 0.278 A 6.704 6.704 0 0 1 44.67 0.601 L 44.253 1.758 A 8.239 8.239 0 0 0 43.085 1.367 Q 42.425 1.204 41.815 1.188 A 4.993 4.993 0 0 0 41.689 1.187 A 3.573 3.573 0 0 0 41.109 1.231 Q 40.801 1.282 40.551 1.391 A 1.716 1.716 0 0 0 40.199 1.597 Q 39.661 2.007 39.661 2.747 A 2.209 2.209 0 0 0 39.69 3.117 Q 39.727 3.332 39.809 3.508 A 1.252 1.252 0 0 0 39.869 3.622 A 1.542 1.542 0 0 0 40.121 3.934 Q 40.296 4.104 40.543 4.255 Q 40.93 4.493 41.684 4.786 A 18.412 18.412 0 0 0 42.004 4.907 Q 43.198 5.347 43.784 5.761 A 3.125 3.125 0 0 1 44.266 6.176 A 2.396 2.396 0 0 1 44.648 6.713 A 2.413 2.413 0 0 1 44.873 7.384 A 3.361 3.361 0 0 1 44.927 7.998 A 3.112 3.112 0 0 1 44.773 9.001 A 2.567 2.567 0 0 1 43.916 10.203 A 3.405 3.405 0 0 1 42.754 10.793 Q 42.034 11.008 41.104 11.008 A 11.567 11.567 0 0 1 40.011 10.96 Q 38.916 10.856 38.208 10.526 A 3.27 3.27 0 0 1 38.159 10.503 Z M 62.102 10.862 L 60.798 10.862 L 60.798 5.72 A 3.515 3.515 0 0 0 60.76 5.182 Q 60.717 4.907 60.627 4.688 A 1.442 1.442 0 0 0 60.363 4.259 A 1.339 1.339 0 0 0 59.803 3.899 Q 59.462 3.779 58.997 3.779 A 3.525 3.525 0 0 0 58.329 3.838 Q 57.956 3.91 57.67 4.071 A 1.639 1.639 0 0 0 57.198 4.464 A 2.034 2.034 0 0 0 56.869 5.066 Q 56.669 5.618 56.642 6.435 A 7.931 7.931 0 0 0 56.638 6.694 L 56.638 10.862 L 55.32 10.862 L 55.32 2.82 L 56.382 2.82 L 56.58 3.919 L 56.653 3.919 Q 57.026 3.325 57.7 2.999 Q 58.374 2.673 59.187 2.673 Q 60.138 2.673 60.775 2.97 A 2.119 2.119 0 0 1 61.384 3.391 A 2.19 2.19 0 0 1 61.887 4.206 Q 62.013 4.552 62.065 4.979 A 5.352 5.352 0 0 1 62.102 5.625 L 62.102 10.862 Z M 64.094 10.503 L 64.094 9.302 A 6.837 6.837 0 0 0 65.316 9.765 A 5.154 5.154 0 0 0 66.65 9.946 Q 67.531 9.946 67.988 9.695 A 1.171 1.171 0 0 0 68.101 9.624 A 1.121 1.121 0 0 0 68.395 9.326 Q 68.555 9.082 68.555 8.76 A 0.933 0.933 0 0 0 68.261 8.077 A 1.39 1.39 0 0 0 68.119 7.954 A 2.707 2.707 0 0 0 67.84 7.772 Q 67.387 7.512 66.57 7.2 Q 65.696 6.862 65.222 6.6 A 3.312 3.312 0 0 1 64.973 6.449 A 2.582 2.582 0 0 1 64.627 6.173 Q 64.44 5.993 64.32 5.791 A 1.584 1.584 0 0 1 64.296 5.75 A 1.646 1.646 0 0 1 64.124 5.275 Q 64.083 5.071 64.08 4.838 A 2.83 2.83 0 0 1 64.08 4.805 A 1.94 1.94 0 0 1 64.234 4.02 Q 64.432 3.566 64.885 3.245 Q 65.526 2.791 66.546 2.697 A 6.07 6.07 0 0 1 67.097 2.673 Q 68.467 2.673 69.661 3.215 L 69.214 4.263 A 7.693 7.693 0 0 0 68.295 3.941 Q 67.822 3.81 67.392 3.769 A 4.044 4.044 0 0 0 67.009 3.75 A 4.156 4.156 0 0 0 66.557 3.773 Q 66.091 3.824 65.799 3.99 A 1.187 1.187 0 0 0 65.764 4.01 A 1.006 1.006 0 0 0 65.527 4.207 A 0.763 0.763 0 0 0 65.339 4.724 A 0.875 0.875 0 0 0 65.63 5.388 A 1.182 1.182 0 0 0 65.706 5.453 Q 66.024 5.704 67.076 6.124 A 25.694 25.694 0 0 0 67.412 6.255 Q 68.282 6.579 68.758 6.864 A 3.133 3.133 0 0 1 68.895 6.951 Q 69.358 7.262 69.586 7.647 A 1.657 1.657 0 0 1 69.602 7.676 A 1.718 1.718 0 0 1 69.792 8.211 A 2.371 2.371 0 0 1 69.829 8.643 A 2.412 2.412 0 0 1 69.711 9.417 A 1.968 1.968 0 0 1 68.987 10.39 Q 68.33 10.872 67.258 10.979 A 6.469 6.469 0 0 1 66.621 11.008 Q 65.032 11.008 64.094 10.503 Z M 52.83 10.862 L 51.87 10.862 L 51.614 9.719 L 51.555 9.719 A 5.04 5.04 0 0 1 51.147 10.176 Q 50.928 10.391 50.709 10.542 A 2.24 2.24 0 0 1 50.358 10.741 A 2.79 2.79 0 0 1 49.781 10.923 Q 49.5 10.981 49.172 11 A 5.619 5.619 0 0 1 48.853 11.008 Q 47.666 11.008 46.992 10.386 A 2.028 2.028 0 0 1 46.393 9.325 A 3.086 3.086 0 0 1 46.318 8.628 A 2.122 2.122 0 0 1 47.523 6.622 Q 48.415 6.148 49.967 6.073 A 11.707 11.707 0 0 1 50.178 6.065 L 51.541 6.013 L 51.541 5.537 A 3.369 3.369 0 0 0 51.507 5.048 Q 51.471 4.798 51.393 4.597 A 1.311 1.311 0 0 0 51.145 4.186 A 1.198 1.198 0 0 0 50.66 3.87 Q 50.334 3.75 49.878 3.75 A 3.807 3.807 0 0 0 48.825 3.893 A 3.547 3.547 0 0 0 48.673 3.941 A 10.204 10.204 0 0 0 47.861 4.251 A 9.002 9.002 0 0 0 47.607 4.365 L 47.205 3.377 A 5.878 5.878 0 0 1 48.342 2.922 A 6.647 6.647 0 0 1 48.53 2.871 A 5.731 5.731 0 0 1 49.951 2.688 Q 50.864 2.688 51.484 2.941 A 2.135 2.135 0 0 1 52.119 3.333 A 1.961 1.961 0 0 1 52.641 4.136 Q 52.83 4.658 52.83 5.383 L 52.83 10.862 Z M 24.097 9.763 L 24.097 10.774 A 1.364 1.364 0 0 1 23.978 10.819 Q 23.805 10.876 23.529 10.932 Q 23.145 11.008 22.749 11.008 A 3.217 3.217 0 0 1 21.801 10.881 Q 20.76 10.56 20.487 9.429 A 3.865 3.865 0 0 1 20.391 8.526 L 20.391 3.845 L 19.255 3.845 L 19.255 3.215 L 20.405 2.688 L 20.933 0.974 L 21.716 0.974 L 21.716 2.82 L 24.038 2.82 L 24.038 3.845 L 21.716 3.845 L 21.716 8.489 A 2.331 2.331 0 0 0 21.751 8.902 Q 21.791 9.128 21.881 9.308 A 1.136 1.136 0 0 0 22.05 9.558 A 1.091 1.091 0 0 0 22.687 9.907 A 1.603 1.603 0 0 0 22.976 9.932 A 3.166 3.166 0 0 0 23.208 9.923 Q 23.33 9.914 23.467 9.896 A 6.001 6.001 0 0 0 23.577 9.88 A 5.011 5.011 0 0 0 23.757 9.851 Q 23.97 9.811 24.097 9.763 Z M 18.088 8.053 A 6.281 6.281 0 0 0 18.201 6.826 Q 18.201 4.907 17.201 3.79 A 3.21 3.21 0 0 0 15.7 2.837 A 4.173 4.173 0 0 0 14.502 2.673 Q 12.729 2.673 11.748 3.768 Q 10.767 4.863 10.767 6.826 Q 10.767 8.086 11.221 9.038 A 4.01 4.01 0 0 0 11.294 9.184 A 3.3 3.3 0 0 0 12.517 10.499 A 3.415 3.415 0 0 0 13.332 10.856 A 3.982 3.982 0 0 0 14.451 11.008 Q 16.208 11.008 17.205 9.902 A 3.402 3.402 0 0 0 17.608 9.352 Q 17.943 8.784 18.088 8.053 Z M 32.576 8.053 A 6.281 6.281 0 0 0 32.688 6.826 Q 32.688 4.907 31.688 3.79 A 3.21 3.21 0 0 0 30.188 2.837 A 4.173 4.173 0 0 0 28.989 2.673 Q 27.217 2.673 26.235 3.768 Q 25.254 4.863 25.254 6.826 Q 25.254 8.086 25.708 9.038 A 4.01 4.01 0 0 0 25.781 9.184 A 3.3 3.3 0 0 0 27.004 10.499 A 3.415 3.415 0 0 0 27.819 10.856 A 3.982 3.982 0 0 0 28.938 11.008 Q 30.696 11.008 31.692 9.902 A 3.402 3.402 0 0 0 32.095 9.352 Q 32.43 8.784 32.576 8.053 Z M 12.129 6.826 A 6.168 6.168 0 0 0 12.184 7.683 Q 12.311 8.582 12.726 9.13 A 1.933 1.933 0 0 0 13.989 9.877 A 2.937 2.937 0 0 0 14.487 9.917 A 2.671 2.671 0 0 0 15.213 9.824 A 1.905 1.905 0 0 0 16.238 9.13 A 2.562 2.562 0 0 0 16.627 8.37 Q 16.744 8.013 16.796 7.577 A 6.315 6.315 0 0 0 16.838 6.826 Q 16.838 5.31 16.234 4.545 Q 15.63 3.779 14.465 3.779 A 2.512 2.512 0 0 0 13.402 3.988 Q 12.129 4.577 12.129 6.826 Z M 26.616 6.826 A 6.168 6.168 0 0 0 26.672 7.683 Q 26.798 8.582 27.213 9.13 A 1.933 1.933 0 0 0 28.476 9.877 A 2.937 2.937 0 0 0 28.975 9.917 A 2.671 2.671 0 0 0 29.7 9.824 A 1.905 1.905 0 0 0 30.725 9.13 A 2.562 2.562 0 0 0 31.114 8.37 Q 31.231 8.013 31.284 7.577 A 6.315 6.315 0 0 0 31.326 6.826 Q 31.326 5.31 30.721 4.545 Q 30.117 3.779 28.953 3.779 A 2.512 2.512 0 0 0 27.89 3.988 Q 26.616 4.577 26.616 6.826 Z M 51.526 7.654 L 51.526 6.929 L 50.339 6.98 A 8.375 8.375 0 0 0 49.629 7.034 Q 48.941 7.119 48.51 7.319 A 1.854 1.854 0 0 0 48.322 7.42 A 1.266 1.266 0 0 0 47.711 8.339 A 1.898 1.898 0 0 0 47.688 8.643 A 1.651 1.651 0 0 0 47.731 9.033 A 1.086 1.086 0 0 0 48.073 9.61 Q 48.405 9.901 48.969 9.94 A 2.624 2.624 0 0 0 49.153 9.946 Q 50.259 9.946 50.892 9.349 A 1.94 1.94 0 0 0 51.442 8.386 Q 51.526 8.053 51.526 7.654 Z" vector-effect="non-scaling-stroke"/></g></svg>
